icons/move.svg

<?xml version="1.0" encoding="utf-8"?>
<svg viewBox="0 0 24 24" xmlns="http://www.w3.org/2000/svg">
  <path d="M 23.916 12 L 17.959 7.035 L 17.959 11.007 L 12.994 11.007 L 12.994 6.042 L 16.966 6.042 L 12.001 0.085 L 7.036 6.042 L 11.008 6.042 L 11.008 11.007 L 6.043 11.007 L 6.043 7.035 L 0.085 12 L 6.043 16.965 L 6.043 12.993 L 11.008 12.993 L 11.008 17.958 L 7.036 17.958 L 12.001 23.916 L 16.966 17.958 L 12.994 17.958 L 12.994 12.993 L 17.959 12.993 L 17.959 16.965 L 23.916 12 Z" style=""/>
</svg>

<?xml version="1.0" encoding="utf-8"?>
<svg xmlns="http://www.w3.org/2000/svg" width="24" height="24" viewBox="0 0 24 24">
<path d="M24 12l-6-5v4h-5v-5h4l-5-6-5 6h4v5h-5v-4l-6 5 6 5v-4h5v5h-4l5 6 5-6h-4v-5h5v4z"/>
</svg>
